src/icons/blockchains/dark/polygon.svg

<svg width="24" height="24" viewBox="0 0 24 24" fill="none" xmlns="http://www.w3.org/2000/svg">
  <rect width="24" height="24" rx="12" fill="#080530" />
  <mask
    id="mask0_1131_18493"
    style="mask-type: alpha"
    maskUnits="userSpaceOnUse"
    x="4"
    y="4"
    width="16"
    height="16"
  >
    <rect x="4" y="4" width="16" height="16" fill="#D9D9D9" />
  </mask>
  <g mask="url(#mask0_1131_18493)">
    <path
      d="M16.1056 9.38762C15.8241 9.20752 15.4487 9.20752 15.1202 9.38762L12.7742 10.6934L11.1789 11.5489L8.87977 12.8546C8.59824 13.0347 8.22288 13.0347 7.89443 12.8546L6.11144 11.819C5.82991 11.6389 5.59531 11.3238 5.59531 10.9635V8.98239C5.59531 8.66721 5.78299 8.35202 6.11144 8.12689L7.89443 7.13632C8.17596 6.95621 8.55132 6.95621 8.87977 7.13632L10.6628 8.17192C10.9443 8.35202 11.1789 8.66721 11.1789 9.02741V10.3332L12.7742 9.43266V8.08187C12.7742 7.76669 12.5865 7.4515 12.2581 7.22637L8.92669 5.33527C8.64517 5.15517 8.2698 5.15517 7.94136 5.33527L4.51612 7.2714C4.18768 7.4515 4 7.76669 4 8.08187V11.8641C4 12.1792 4.18768 12.4944 4.51612 12.7196L7.89443 14.6107C8.17596 14.7908 8.55132 14.7908 8.87977 14.6107L11.1789 13.3499L12.7742 12.4494L15.0733 11.1887C15.3549 11.0086 15.7302 11.0086 16.0587 11.1887L17.8417 12.1792C18.1232 12.3594 18.3578 12.6745 18.3578 13.0347V15.0609C18.3578 15.3761 18.1701 15.6913 17.8417 15.9164L16.1056 16.907C15.8241 17.0871 15.4487 17.0871 15.1202 16.907L13.3373 15.9164C13.0557 15.7363 12.8211 15.4211 12.8211 15.0609V13.8002L11.2258 14.7007V16.0064C11.2258 16.3217 11.4135 16.6369 11.742 16.8619L15.1202 18.753C15.4018 18.9332 15.7772 18.9332 16.1056 18.753L19.4839 16.8619C19.7654 16.6818 20 16.3667 20 16.0064V12.1792C20 11.8641 19.8124 11.5489 19.4839 11.3238L16.1056 9.38762Z"
      fill="white"
    />
  </g>
</svg>

<svg
  xmlns="http://www.w3.org/2000/svg"
  width="24"
  height="24"
  fill="none"
  xmlns:v="https://vecta.io/nano"
>
  <rect width="24" height="24" rx="12" fill="#080530" />
  <mask id="A" maskUnits="userSpaceOnUse" x="4" y="4" width="16" height="16" mask-type="alpha">
    <path fill="#d9d9d9" d="M4 4h16v16H4z" />
  </mask>
  <g mask="url(#A)">
    <path
      d="M16.106 9.388c-.281-.18-.657-.18-.985 0l-2.346 1.306-1.595.855-2.299 1.306c-.282.18-.657.18-.985 0l-1.783-1.036c-.282-.18-.516-.495-.516-.856V8.982c0-.315.188-.63.516-.856l1.783-.991c.282-.18.657-.18.985 0l1.783 1.036c.281.18.516.495.516.855v1.306l1.595-.901V8.082c0-.315-.188-.63-.516-.856L8.927 5.335c-.282-.18-.657-.18-.985 0L4.516 7.271c-.328.18-.516.495-.516.81v3.782c0 .315.188.63.516.855l3.378 1.891c.282.18.657.18.985 0l2.299-1.261 1.595-.9 2.299-1.261c.282-.18.657-.18.985 0l1.783.99c.282.18.516.495.516.856v2.026c0 .315-.188.63-.516.855l-1.736.991c-.281.18-.657.18-.985 0l-1.783-.991c-.282-.18-.516-.495-.516-.855V13.8l-1.595.9v1.306c0 .315.188.631.516.855l3.378 1.891c.282.18.657.18.985 0l3.378-1.891c.282-.18.516-.495.516-.855v-3.827c0-.315-.188-.63-.516-.855l-3.378-1.936z"
      fill="#fff"
    />
  </g>
</svg>
